germany/municipalities/03351025.svg

<svg xmlns="http://www.w3.org/2000/svg" width="140" height="175" version="1.0"><path d="M139 104.8V1H1v103.8C1 143 31.91 174 70 174s69-31 69-69.2z" style="fill:#ed1c24;fill-opacity:1;fill-rule:nonzero;stroke:none;stroke-width:2.00000048;stroke-linecap:butt;stroke-linejoin:miter;stroke-miterlimit:4;stroke-opacity:1"/><path style="fill:#fff;fill-opacity:1;fill-rule:evenodd;stroke:#000;stroke-width:.60000008;stroke-linecap:round;stroke-linejoin:miter;stroke-miterlimit:4;stroke-opacity:1" d="M69.98 61.06c-1.02.02-1.83 1.15-1.82 2.53v105.48c.88-2.06 2.59-3.31 3.68-3.31V63.59c.01-.67-.19-1.32-.54-1.8-.35-.47-.83-.74-1.32-.73zM70 7.33c-4.74 5.19-7.93 14.88-7.93 25.97 0 11.1 3.19 20.78 7.93 25.97 4.74-5.19 7.93-14.87 7.93-25.97 0-11.09-3.19-20.78-7.93-25.97zm44.06 22.7c-.35 7.73-5.4 17.75-14.03 26.38-8.64 8.64-18.66 13.69-26.39 14.04.35-7.73 5.4-17.75 14.04-26.38 8.63-8.64 18.65-13.69 26.38-14.04zm4.64 24.89c-.71 8.12-6.48 18.44-15.95 27.14-9.48 8.7-20.25 13.57-28.4 13.59.71-8.12 6.48-18.44 15.95-27.14 9.48-8.7 20.25-13.57 28.4-13.59zm1.97 26.54c-.76 8.36-6.72 18.99-16.5 27.93-9.78 8.95-20.88 13.94-29.28 13.94.75-8.36 6.71-18.98 16.49-27.92 9.78-8.95 20.89-13.94 29.29-13.95zm4.6 26.41c-.91 9.16-7.55 20.75-18.36 30.47-10.81 9.71-23.04 15.08-32.25 15 .91-9.16 7.55-20.75 18.36-30.46 10.81-9.72 23.04-15.09 32.25-15.01zM25.94 30.03c.35 7.73 5.4 17.75 14.03 26.38 8.64 8.64 18.66 13.69 26.39 14.04-.35-7.73-5.4-17.75-14.04-26.38-8.63-8.64-18.65-13.69-26.38-14.04zM21.3 54.92c.71 8.12 6.48 18.44 15.95 27.14 9.48 8.7 20.25 13.57 28.4 13.59-.71-8.12-6.48-18.44-15.95-27.14-9.48-8.7-20.25-13.57-28.4-13.59zm-1.97 26.54c.76 8.36 6.72 18.99 16.5 27.93 9.78 8.95 20.88 13.94 29.28 13.94-.75-8.36-6.71-18.98-16.49-27.92-9.78-8.95-20.89-13.94-29.29-13.95zm-4.6 26.41c.91 9.16 7.55 20.75 18.36 30.47 10.81 9.71 23.04 15.08 32.25 15-.91-9.16-7.55-20.75-18.36-30.46-10.81-9.72-23.04-15.09-32.25-15.01z"/><path style="fill:none;fill-opacity:1;fill-rule:nonzero;stroke:#000;stroke-width:2.00000048;stroke-linecap:butt;stroke-linejoin:miter;stroke-miterlimit:4;stroke-opacity:1" d="M139 104.8V1H1v103.8C1 143 31.91 174 70 174s69-31 69-69.2z"/><path style="fill:none;fill-opacity:.75;fill-rule:evenodd;stroke:#000;stroke-width:.59999979;stroke-linecap:round;stroke-linejoin:miter;stroke-miterlimit:4;stroke-opacity:1" d="M70 56.26V20.77m-3.55 4.87L70 30.09l3.56-4.47m-7.4 5.67L70 36.1l3.85-4.83m-7.98 5.66L70 42.11l4.13-5.18m-8.38 5.85L70 48.12l4.25-5.34m.6 26.49 27.47-27.06m-6.47.97-.75 6.14 6.17-.65m-10.02-1.41-.8 6.64 6.68-.7m-10.47-1.86-.86 7.14 7.16-.75M82.04 55.7l-.89 7.36 7.37-.77m-12.6 31.86 31.62-29.58m-7.3.9-1.01 6.87 6.95-.55m-11.21-1.87-1.09 7.43 7.51-.6M89.7 74.37l-1.17 7.99 8.05-.64m-12.2-2.59-1.21 8.24 8.3-.66m-15.21 35.24 34.28-31.57m-7.86.9-1.14 7.39 7.48-.53m-12.05-2.11-1.24 7.99 8.1-.58m-12.57-2.67-1.33 8.59 8.67-.62m-13.11-2.89-1.37 8.86 8.94-.64M75.91 152.2l37.43-34.27m-8.56.96-1.27 8.04 8.14-.56m-13.11-2.33-1.37 8.69 8.81-.6m-13.67-2.95-1.48 9.35 9.45-.64m-14.27-3.19-1.52 9.64 9.73-.67m-29.13-74.4L37.61 42.21m6.48.97.74 6.14-6.17-.65m10.02-1.41.8 6.64-6.68-.7m10.47-1.86.86 7.14-7.15-.75M57.9 55.7l.89 7.36-7.38-.77m12.6 31.86L32.4 64.57m7.29.9 1.01 6.87-6.95-.55m11.21-1.87 1.09 7.43-7.51-.6m11.69-2.38 1.18 7.99-8.06-.64m12.2-2.59 1.21 8.24-8.3-.66m15.21 35.24L29.39 90.38m7.86.9 1.14 7.39-7.48-.53m12.05-2.11 1.24 7.99-8.1-.58m12.57-2.67 1.33 8.59-8.67-.62m13.11-2.89 1.37 8.86-8.94-.64m17.16 38.13-37.44-34.27m8.57.96 1.27 8.04-8.15-.56m13.11-2.33 1.38 8.69-8.82-.6m13.68-2.95 1.47 9.35-9.45-.64m14.27-3.19 1.52 9.64-9.73-.67"/></svg>

<?xml version="1.0" encoding="UTF-8" standalone="no"?>
<!-- Created with Inkscape (http://www.inkscape.org/) -->
<svg
   xmlns:dc="http://purl.org/dc/elements/1.1/"
   xmlns:cc="http://web.resource.org/cc/"
   xmlns:rdf="http://www.w3.org/1999/02/22-rdf-syntax-ns#"
   xmlns:svg="http://www.w3.org/2000/svg"
   xmlns="http://www.w3.org/2000/svg"
   xmlns:inkscape="http://www.inkscape.org/namespaces/inkscape"
   width="140"
   height="175"
   id="svg2"
   inkscape:version="0.44"
   version="1.0">
  <metadata
     id="metadata7">
    <rdf:RDF>
      <cc:Work
         rdf:about="">
        <dc:format>image/svg+xml</dc:format>
        <dc:type
           rdf:resource="http://purl.org/dc/dcmitype/StillImage" />
        <dc:title>Wappen Eschede (Niedersachsen)</dc:title>
        <dc:date>2007-07-09</dc:date>
        <dc:creator>
          <cc:Agent>
            <dc:title>Thiemo Mättig</dc:title>
          </cc:Agent>
        </dc:creator>
        <cc:license
           rdf:resource="http://web.resource.org/cc/PublicDomain" />
        <dc:source>http://www.eschede.de/</dc:source>
        <dc:language>de</dc:language>
      </cc:Work>
      <cc:License
         rdf:about="http://web.resource.org/cc/PublicDomain">
        <cc:permits
           rdf:resource="http://web.resource.org/cc/Reproduction" />
        <cc:permits
           rdf:resource="http://web.resource.org/cc/Distribution" />
        <cc:permits
           rdf:resource="http://web.resource.org/cc/DerivativeWorks" />
      </cc:License>
    </rdf:RDF>
  </metadata>
  <g
     inkscape:label="Ebene 1"
     inkscape:groupmode="layer"
     id="layer1">
    <path
       id="path8453"
       d="M139,104.8L139,1L1,1L1,104.8C1,143 31.91,174 70,174C108.09,174 139,143 139,104.8z"
       style="fill:#ed1c24;fill-opacity:1;fill-rule:nonzero;stroke:none;stroke-width:2.00000048;stroke-linecap:butt;stroke-linejoin:miter;stroke-miterlimit:4;stroke-opacity:1" />
    <path
       id="path5707"
       style="fill:white;fill-opacity:1;fill-rule:evenodd;stroke:black;stroke-width:0.60000008;stroke-linecap:round;stroke-linejoin:miter;stroke-miterlimit:4;stroke-opacity:1"
       d="M69.98,61.06C68.96,61.08 68.15,62.21 68.16,63.59L68.16,169.07C69.04,167.01 70.75,165.76 71.84,165.76L71.84,63.59C71.85,62.92 71.65,62.27 71.3,61.79C70.95,61.32 70.47,61.05 69.98,61.06z M70,7.33C65.26,12.52 62.07,22.21 62.07,33.3C62.07,44.4 65.26,54.08 70,59.27C74.74,54.08 77.93,44.4 77.93,33.3C77.93,22.21 74.74,12.52 70,7.33z M114.06,30.03C113.71,37.76 108.66,47.78 100.03,56.41C91.39,65.05 81.37,70.1 73.64,70.45C73.99,62.72 79.04,52.7 87.68,44.07C96.31,35.43 106.33,30.38 114.06,30.03z M118.7,54.92C117.99,63.04 112.22,73.36 102.75,82.06C93.27,90.76 82.5,95.63 74.35,95.65C75.06,87.53 80.83,77.21 90.3,68.51C99.78,59.81 110.55,54.94 118.7,54.92z M120.67,81.46C119.91,89.82 113.95,100.45 104.17,109.39C94.39,118.34 83.29,123.33 74.89,123.33C75.64,114.97 81.6,104.35 91.38,95.41C101.16,86.46 112.27,81.47 120.67,81.46z M125.27,107.87C124.36,117.03 117.72,128.62 106.91,138.34C96.1,148.05 83.87,153.42 74.66,153.34C75.57,144.18 82.21,132.59 93.02,122.88C103.83,113.16 116.06,107.79 125.27,107.87z M25.94,30.03C26.29,37.76 31.34,47.78 39.97,56.41C48.61,65.05 58.63,70.1 66.36,70.45C66.01,62.72 60.96,52.7 52.32,44.07C43.69,35.43 33.67,30.38 25.94,30.03z M21.3,54.92C22.01,63.04 27.78,73.36 37.25,82.06C46.73,90.76 57.5,95.63 65.65,95.65C64.94,87.53 59.17,77.21 49.7,68.51C40.22,59.81 29.45,54.94 21.3,54.92z M19.33,81.46C20.09,89.82 26.05,100.45 35.83,109.39C45.61,118.34 56.71,123.33 65.11,123.33C64.36,114.97 58.4,104.35 48.62,95.41C38.84,86.46 27.73,81.47 19.33,81.46z M14.73,107.87C15.64,117.03 22.28,128.62 33.09,138.34C43.9,148.05 56.13,153.42 65.34,153.34C64.43,144.18 57.79,132.59 46.98,122.88C36.17,113.16 23.94,107.79 14.73,107.87z" />
    <path
       style="fill:none;fill-opacity:1;fill-rule:nonzero;stroke:#000000;stroke-width:2.00000048;stroke-linecap:butt;stroke-linejoin:miter;stroke-miterlimit:4;stroke-opacity:1"
       d="M139,104.8L139,1L1,1L1,104.8C1,143 31.91,174 70,174C108.09,174 139,143 139,104.8z"
       id="path7209" />
    <path
       id="path6731"
       style="fill:none;fill-opacity:0.75;fill-rule:evenodd;stroke:black;stroke-width:0.59999979;stroke-linecap:round;stroke-linejoin:miter;stroke-miterlimit:4;stroke-opacity:1"
       d="M70,56.26L70,20.77M66.45,25.64L70,30.09L73.56,25.62M66.16,31.29L70,36.1L73.85,31.27M65.87,36.93L70,42.11L74.13,36.93M65.75,42.78L70,48.12L74.25,42.78M74.85,69.27L102.32,42.21M95.85,43.18L95.1,49.32L101.27,48.67M91.25,47.26L90.45,53.9L97.13,53.2M86.66,51.34L85.8,58.48L92.96,57.73M82.04,55.7L81.15,63.06L88.52,62.29M75.92,94.15L107.54,64.57M100.24,65.47L99.23,72.34L106.18,71.79M94.97,69.92L93.88,77.35L101.39,76.75M89.7,74.37L88.53,82.36L96.58,81.72M84.38,79.13L83.17,87.37L91.47,86.71M76.26,121.95L110.54,90.38M102.68,91.28L101.54,98.67L109.02,98.14M96.97,96.03L95.73,104.02L103.83,103.44M91.26,100.77L89.93,109.36L98.6,108.74M85.49,105.85L84.12,114.71L93.06,114.07M75.91,152.2L113.34,117.93M104.78,118.89L103.51,126.93L111.65,126.37M98.54,124.04L97.17,132.73L105.98,132.13M92.31,129.18L90.83,138.53L100.28,137.89M86.01,134.7L84.49,144.34L94.22,143.67M65.09,69.27L37.61,42.21M44.09,43.18L44.83,49.32L38.66,48.67M48.68,47.26L49.48,53.9L42.8,53.2M53.27,51.34L54.13,58.48L46.98,57.73M57.9,55.7L58.79,63.06L51.41,62.29M64.01,94.15L32.4,64.57M39.69,65.47L40.7,72.34L33.75,71.79M44.96,69.92L46.05,77.35L38.54,76.75M50.23,74.37L51.41,82.36L43.35,81.72M55.55,79.13L56.76,87.37L48.46,86.71M63.67,121.95L29.39,90.38M37.25,91.28L38.39,98.67L30.91,98.14M42.96,96.03L44.2,104.02L36.1,103.44M48.67,100.77L50,109.36L41.33,108.74M54.44,105.85L55.81,114.71L46.87,114.07M64.03,152.2L26.59,117.93M35.16,118.89L36.43,126.93L28.28,126.37M41.39,124.04L42.77,132.73L33.95,132.13M47.63,129.18L49.1,138.53L39.65,137.89M53.92,134.7L55.44,144.34L45.71,143.67" />
  </g>
</svg>
